X: 38
T:Sylph, the
M:2/4
L:1/16
S:AABB x 2
R:Polka or 2/4 Reel
K:G
"D"d2|"G"BcBA G2D2|"G"GABc d2g2|BcBA G2AB|"D"c2A2 A2d2|!
"G"BcBA G2D2|"G"GABc "D"defg|"C"edcB "D"ABcd|"G"B2G2 G2|!
d2|"Em"g3a b2ag|"D"a2f2 d2f2|"Em"g3a b2ag|"D"a2d2 d2f2|!
"G"gfga bagf|"C"edef gfed|"Am"e3c "D"ABcd|"G"B2G2 G2:||
% <A name="D1X039">
